!!!!SEGMENT: pl-sa--481-a-viii-121--018_anonim--kozak.krn
!!!cenid: 18xx:389
!!!COM: Anonim
!!!COM-rismid: pe30004985
!!!CDT:
!!!CNT:
!!!OTL: Kozak
!!!PDT:
!!!AGN: Secular
!!!SMS-siglum: PL-SA
!!!SMS-shelfmark: 481/A VIII 121
!!!SMS-shelfwork: 018 W
!!!SMS-variant:
!!!SMS-altvar:
!!!NIFC-rismid: 1001070667
!!!URL-scan: http://bc.bdsandomierz.pl/dlibra/publication/1212/edition/1171/content
!!!ONB-nifc: Str. 10, s. 4
**kern	**kern
*part2	*part1
*staff2	*staff1
*Iempty	*Iempty
*I"	*I"
*clefF4	*clefG2
*k[f#]	*k[f#]
*G:	*G:
*M2/4	*M2/4
=1	=1
*tremolo	*
!LO:TX:a:t=P:problem:caudy z prawej strony	!LO:TX:a:t=P:problem:caudy z prawej strony
!LO:TX:a:t=P:problem:w źródle przy półnutach kropki	!
8G\L 8B	8g\L
8d\	8a\
8G\ 8B	8b\
8d\J	8cc\J
*Xtremolo	*
=2	=2
*rep	*
!LO:TX:a:t=P:problem:w źródle brak oznaczeń cyfrowych nad powtórzeniami	!
8G\L 8B	16dd\LL
.	16ee\
8d\	16dd\
.	16cc\JJ
8G\ 8B	8dd\L
8d\J	8gg\J
*Xrep	*
=3	=3
*rep	*
8G\L 8B	8g\L
8d\	8a\
8G\ 8B	8b\
8d\J	8cc\J
*Xrep	*
=4	=4
*rep	*
8G\L 8B	16dd\LL
.	16ee\
8d\	16dd\
.	16cc\JJ
8G\ 8B	4dd\
8d\J	.
*Xrep	*
=5:|!|:	=5:|!|:
*tremolo	*
8A\L 8c	8cc\L
8d\	8aa\
8A\ 8c	8a\
8d\J	8ff#\J
=6	=6
8G\L 8B	16gg\LL
.	16ff#\
8d\	16gg\
.	16aa\JJ
8G\ 8B	8gg\L
8d\J	8bb\J
=7	=7
8A\L 8c	8cc\L
8d\	8aa\
8A\ 8c	8a\
8d\J	8ff#\J
=8	=8
8G\L 8B	16gg\LL
.	16ff#\
8d\	16gg\
.	16aa\JJ
8G\ 8B	4gg\
8d\J	.
*Xtremolo	*
=:|!	=:|!
*-	*-
!!!system-decoration: [(s1,s2)]
!!!RDF**kern: > = above
!!!RDF**kern: < = below
!!!EED: Mateusz Mrugas
!!!EST: 2020-11-21
!!!AIN: 2 empty
!!!ENC: Berenika Jozajtis
!!!END: 2020-06-14
